X:1
T: Lady MacIntosh's Rant
C:
R:Strathspey
Q: 128
K:D
M:4/4
L:1/16
|:f2|d3d d3A B3d e3g|f3e d3A B4-B3f|d3d d3A B3d e3g|f3e d3B A6 f2|
d3d d3A B3d e3g|f3e d3A B4-B3f|d3d d3A B3d e3g|f3e d3B A6 g2|
f3g a3f g2e2 e2g2|fefg a2d2 B4-B3g|f3g a3f gfe2 a3g|f3e d3B A6 g2|
f3g a3f g2e2 e2g2|fefg a2d2 B4-B3g|f3g a3f gfe2 a3g|f3e d3B A6:|
